X: 14318
T: Gallagher's Frolics
R: jig
M: 6/8
K: Edorian
|:~E3 GFG|~B3 dBA|BdB BAB|GAB AFD|
~E3 GFG|~B3 dBA|BAG AGF|1 GFE E2D:|2 GFE E2A||
|:Bee gfe|ega bge|dcd fed|fag fed|
e^de gfe|dfe dBA|BAG AGF|1 GFE E2A:|2 GFE E2D||

